X:368
T: ICH GEH AUF DIE KIRCHMESS
N: E0995
O: Europa, Mitteleuropa, Deutschland, Meiningerland, Vachdorf
R: Tanz - Lied, Reigen, Kirmes
M: 6/8
L: 1/8
K: C
G, | CCCDDD | EEED2
G, | G,G,A,B,2D | CA,^F,G,2
G, | G,G,A,B,B,C | DDED2
G, | G,G,A,B,B,C | DDED2
G | EzEDzD | C2EG2
G | EzEDzD | Cz4

